X:945
T: Miss Cassidy
T: In\'ion U\'i Chasaide
S: B.Breathnach:"Ceol Rince na hEireann" IV/99
Z: B.Black
L: 1/8
M: 4/4
R: reel
K: G
G2 GA GDEF|GBdg egdB|(3GFG GA GDEG|AGBG EDEF|
GFGA GDEF|GBdg egdB|G2 GA GDEG|ABAG EDEF ||
GBdg egdB|GBdB AGAB|GBdg egdB|GBAG EDEF|
GBdg egdB|GBdB A2 Bd|e2 dB c2 B2|ABAG EDEF ||
